X:1
T:Ma bouche rit
T:Ma bouche rit
T:André Vierendeels (03/01/12)
C:André Vierendeels
C:(03/01/12)
%%score [ 1 2 3 4 ]
L:1/8
Q:1/4=120
M:2/2
K:C
V:1 treble nm="Soprano" snm="S"
V:2 treble nm="Alto" snm="A"
V:3 treble-8 nm="Tenor" snm="T"
V:4 bass nm="Bass" snm="B"
V:1
 A8 | E4 E4 | A8 | A8 | G4 G4 | c4 c4 | B4 c2 d2- | d2 c2 A4 | B4 E4 | z4 G4 | A4 B4 | c6 BA | %12
w: Ma|bou- che|rit,|ma|bou- che|rit et|mon coeur pleu-||* re,|ma|bou- che|rit _ _|
 B4 E4 | E4 D4 | E4 F4 | G6 E2 | F8 | E8 | A8 | E G2 F EDEG | FA Bc d4 | z4 c4 | cB AG AB cd | c8 | %24
w: _ et|mon coeur|pleu- *|||re,|ma|bou- * * che _ _ _|rit _ _ _ _|et|mon _ _ _ _ _ _ _|coeur|
 c2 BA G4 | B2 cd B4 | c4 d4- | d4 c4 | d4 c4 | B6 A2 | G8 | A8 | E4 E4 | A4 A4 | G4 G4 | c8 | B8 | %37
w: pleu- * * *||||||re,|ma|bou- che|rit et|mon coeur|pleu-||
 c8 | d8 | c8 | A8 | B8 | E8 | z2 G2 B4 | A8 | B8 | c8 | E8 | E8 | D8 | E8 | F8 | G8 | F8 | %54
w: re,|et|mon|coeur|pleu-|re,|ma bou-|che|rit|et|mon|coeur|pleu-|||||
 D4 E2 F2 | E8 |] %56
w: |re.|
V:2
 z4 E4 | E4 G4 | F8 | F8 | D4 E4 | A4 E4 | E6 F2 | A2 E6 | E8 | E8 | F4 D4 | F4 G4- | G4 G4 | %13
w: Ma|bou- che|rit,|ma|bou- che|rit et|mon coeur|pleu- *|re,|ma|bou- che|rit _|_ et|
 C4 F4 | C4 D4 | B,8 | A,8 | E8 | z4 E4 | GDED CDEC | F4 G A2 F | G8 | E4 E4 | G8 | E8 | D4 E4- | %26
w: mon coeur|pleu- *|||re,|ma|bou- * * * che _ _ _|rit _ _ _|_|et mon|coeur|pleu-||
 E4 F4 | _B4 G4- | G4 A2 E2- | E4 G2 E2 | E8 | E8 | G6 A2 | ^F4 E4 | D2 F2 E4 | F4 E3 F | %36
w: ||||re,|ma|bou- che|rit et|mon _ coeur|pleu- * *|
 G3 F E3 D | E8 | F4 G2 F2 | _E4 D2 C2 | D2 C2 E2 D2 | G8 | CDEF G2 F2 | E4 D4 | E4 ^F4 | %45
w: |re,|et mon _|coeur pleu- *|||* * * * re, ma|bou- *|che rit|
 D4 G2 F2 | E6 D2 | C4 E2 F2 | G8 | A2 _B2 A2 G2 | A6 G2 | D6 C2 | D2 C2 _B,2 C2 | D6 C2 | _B,8 | %55
w: et mon _|coeur _|pleu- * *||||||||
 C8 |] %56
w: re.|
V:3
 z4 c4 | c4 B4 | c8 | A8 | B4 c4 | c4 A4 | B4 A4- | A2 G2 c4 | B8 | c8 | c4 B4 | A4 d4- | d4 c4 | %13
w: Ma|bou- che|rit,|ma|bou- che|rit et|mon coeur|_ _ pleu-|re,|ma|bou- che|rit _|_ et|
 A4 A4 | A8 | G4 B4 | d8 | B8 | z4 c4 | cdef cB AG | A4 d4 | e8 | A4 AGAB | cB AG E2 FG | %24
w: mon coeur|pleu-|||re,|ma|bou- * * * che _ _ _|rit _|_|et mon _ _ _|coeur _ _ _ _ _ _|
 A3 c2 G2 c | B2 AB G4 | A3 c A2 _Bc | d4 _e2 dc | _B4 A2 c2 | G4 d2 c2 | B8 | c8 | B4 e4 | d4 c4 | %34
w: pleu- * * *||||||re,|ma|bou- che|rit et|
 d2 _B2 c2 B2 | A2 G2 A2 c2 | e4 B4 | c8 | A4 _B4 | G4 _A2 G2 | FG A2 c2 fc | e3 c d4 | c3 A B4 | %43
w: mon _ coeur _|_ _ _ _|pleu- *|re,|et mon|coeur pleu- *|||* * re,-|
 c4 B4 | ^c4 d4 | d2 c2 B4 | G8 | A6 c2 | B6 c2 | F2 G2 A2 _B2 | c6 _B2 | A8 | _B2 A2 G2 F2 | %53
w: ma bou-|che rit|et _ mon|coeur|pleu- *||||||
 A4 _B2 F2 | G8 | A8 |] %56
w: ||re.|
V:4
 z4 A,4 | A,4 E,4 | F,8 | D,8 | G,4 C,4 | F,4 A,4 | E,4 A,,2 D,2- | D,2 E,2 A,4 | E,8 | C,8 | %10
w: Ma|bou- che|rit,|ma|bou- che|rit et|mon coeur pleu-||re,|ma|
 F,4 G,4 | F,4 G,4- | G,4 C,4 | A,,4 D,4 | A,,4 D,4 | E,8 | D,8 | E,8 | z4 A,,4 | C,B,,C,D, C,4 | %20
w: bou- che|rit _|_ et|mon coeur|pleu- *|||re,|ma|bou- * * * che|
 F,E,D,C, G,F,E,D, | C,8 | A,,8 | C,8 | A,,4 C,4 | G,4 E,4 | A,,4 D,C,_B,,A,, | G,,4 C,4 | %28
w: rit _ _ _ _ _ _ _|_|et|mon|coeur pleu-||||
 G,4 F,2 A,2 | E,4 G,2 A,2 | E,8 | A,,8 | E,4 C,4 | D,4 A,,4 | G,,4 C,4 | F,4 A,4 | E,8 | A,,8 | %38
w: ||re,|ma|bou- che|rit et|mon coeur|pleu- *||re,|
 D,4 G,4 | C,4 F,2 C,2 | D,_B,, A,,4 D,2 | E,4 G,2 F,2 | E,F,G,F, E,2 D,2 | C,4 G,,4 | A,,4 D,4 | %45
w: et mon|coeur pleu- *|||* * * * re, ma|bou- *|che rit|
 G,8 | C,8 | A,,8 | E,8 | D,2 G,2 D,4 | A,,6 C,2 | D,6 F,2 | G,4 G,,4 | D,8 | G,4 E,2 D,2 | A,,8 |] %56
w: et|mon|coeur|pleu-|||||||re.|

